X:500
T:B500-  Wert thou more fairer than thou art (4th/4)
Q:1/4=120
L:1/4
M:C|
K:G
GB/c/de|d3/2 c/B2|z/B/ G/A/Gc|B3/2 A/A2|z/A/ B/G/ c3/2 d/|\
e(d/e/)c2|z/c/ B/A/ (B/4c/4)d/ c3/4^c/4|d2z/d/ c3/4d/4|\
B/G/ A3/4B/4c2|z/B/ A/B/FG|A3/2 G/.G2|]

